X:3
M:2/4
L:1/16
Q:1/4=70
K:A
E2 | A2A2 A2(GA)| BAGA FAEc | defg a2(gf) | ecdB cABG |!
|: z2 | A,2A2C2A2 | A,2AB cBcA | E2e2G2e2 | E2(ef) gedB |!

